X: 14880
T: Garster's Dream
R: jig
M: 6/8
K: Gmajor
|:G2B BGB|cdc BAG|FGA AFA|AdA FED|
D2B BGB|cdc BAG|F2 E DEF|1 G3 G2 D:|2 G2B GB/c/d||
|:g2d gdB|ABA AB/c/d|gdg gdB|dd2 def|
gdg gdB|ABA AGE|G2 E DEF|1 G2B GB/c/d:|2 G3 G2D||

